korla/status/symbolic/weather-few-clouds-symbolic.svg

<svg style="clip-rule:evenodd;fill-rule:evenodd;stroke-linejoin:round;stroke-miterlimit:2" version="1.1" viewBox="0 0 16 16" xmlns="http://www.w3.org/2000/svg">
 <circle cx="7" cy="7" r="5.192" style="fill-opacity:.5;fill:rgb(223,223,223)"/>
 <path d="m2.44 10.84-0.38 1.1 1.1-0.38h0.06c-0.14-0.11-0.28-0.22-0.41-0.34s-0.26-0.24-0.37-0.38zm10.53-4.34c0.01 0.17 0.03 0.33 0.03 0.5v0.16c-0.01 0.11-0.02 0.23-0.03 0.34h0.03l1-0.5-1.03-0.5zm-11.97 0-1 0.5 1.03 0.5c-0.01-0.17-0.03-0.33-0.03-0.5v-0.16c0.01-0.11 0.02-0.23 0.03-0.34h-0.03zm10.94-4.44-1.1 0.38h-0.06c0.14 0.11 0.28 0.22 0.41 0.34s0.26 0.24 0.37 0.38l0.38-1.1zm-9.88 0 0.35 1.07c0.22-0.26 0.46-0.5 0.72-0.72l-1.07-0.35zm4.94-2.06-0.5 1.03c0.16-0.01 0.33-0.03 0.5-0.03h0.5l-0.5-1z" style="fill:rgb(223,223,223)"/>
 <g transform="matrix(.76784 0 0 .76784 5.42571 7.63831)">
  <path d="m3.856 3.922c0.637-1.053 1.792-1.758 3.112-1.758 1.702 0 3.133 1.174 3.526 2.756 0.18-0.044 0.369-0.066 0.563-0.066 1.337 0 2.422 1.085 2.422 2.421 0 1.235-0.926 2.256-2.121 2.404h-1e-3c-0.098 0.012-0.198 0.018-0.3 0.018s-0.202-6e-3 -0.3-0.018h-6.896c-1.589 0-2.878-1.29-2.878-2.879 0-1.587 1.287-2.875 2.873-2.878z" style="fill:rgb(223,223,223)"/>
 </g>
</svg>

<svg xmlns="http://www.w3.org/2000/svg" width="16" height="16" version="1.1">
 <path style="fill:#dfdfdf" d="M 11,9 C 9.69,9 8.6,9.86 8.19,11.03 6.96,11.19 6,12.23 6,13.5 6,14.88 7.12,16 8.5,16 H 13.5 C 14.88,16 16,14.88 16,13.5 16,12.23 15.04,11.19 13.81,11.03 13.41,9.86 12.31,9 11,9 Z"/>
 <path style="fill:#dfdfdf" d="M 7,0 6.5,1.03 C 6.66,1.02 6.83,1 7,1 H 7.5 Z M 7,2 C 4.24,2 2,4.24 2,7 2,9.25 3.51,11.12 5.56,11.75 5.78,11.43 6.05,11.15 6.37,10.91 6.4,10.89 6.44,10.86 6.47,10.84 6.54,10.79 6.62,10.74 6.7,10.7 6.96,10.54 7.24,10.4 7.53,10.31 7.6,10.17 7.68,10.03 7.76,9.9 8.23,9.15 8.91,8.56 9.73,8.24 9.73,8.24 9.73,8.24 9.74,8.24 9.9,8.17 10.08,8.12 10.25,8.09 10.29,8.08 10.34,8.06 10.38,8.06 10.58,8.02 10.79,8 11,8 11.15,8 11.3,8.01 11.44,8.04 11.59,8.05 11.74,8.08 11.88,8.12 11.96,7.76 12,7.39 12,7 12,4.24 9.76,2 7,2 Z M 2.06,2.06 2.41,3.13 C 2.63,2.87 2.87,2.63 3.13,2.41 Z M 11.94,2.06 10.84,2.44 H 10.78 C 10.92,2.55 11.06,2.66 11.19,2.78 11.32,2.9 11.45,3.02 11.56,3.16 Z M 1,6.5 0,7 1.03,7.5 C 1.02,7.33 1,7.17 1,7 1,6.97 1,6.92 1,6.84 1.01,6.73 1.02,6.61 1.03,6.5 Z M 12.97,6.5 C 12.98,6.67 13,6.83 13,7 13,7.03 13,7.08 13,7.16 12.99,7.27 12.98,7.39 12.97,7.5 H 13 L 14,7 Z M 2.44,10.84 2.06,11.94 3.16,11.56 H 3.22 C 3.08,11.45 2.94,11.34 2.81,11.22 2.68,11.1 2.55,10.98 2.44,10.84 Z"/>
</svg>
